X:1
T:Ave Maria
T:Jacob Handl (1550-1591) ed., Gary Harney
T:Ave Maria
T:Copyright © 2019 by the Choral Public Domain Library (http://www.cpdl.org) Edition may be freely distributed, duplicated, performed, or recorded.
T:Copyright © 2019 by the Choral Public Domain Library (http://www.cpdl.org) Edition may be freely distributed, duplicated, performed, or recorded.
T:Copyright © 2019 by the Choral Public Domain Library (http://www.cpdl.org) Edition may be freely distributed, duplicated, performed, or recorded.
T:Copyright © 2019 by the Choral Public Domain Library (http://www.cpdl.org) Edition may be freely distributed, duplicated, performed, or recorded.
C:Jacob Handl
C:(1550-1591)
C:ed., Gary Harney
Z:Copyright © 2019 by the Choral Public Domain Library (http://www.cpdl.org)
Z:Edition may be freely distributed, duplicated, performed, or recorded.
%%score [ 1 2 3 4 ]
L:1/8
M:4/4
K:Emin
V:1 treble nm="Soprano" snm="S."
V:2 treble nm="Alto" snm="A."
V:3 treble-8 transpose=-12 nm="Tenor" snm="T."
V:4 bass nm="Bass" snm="B."
V:1
 G2 D2 E2 E2 !tenuto!B2 c2 !fermata!B2 |[M:4/4] B4 A2 G2 | A4 B4 | z2 B2 A2 G2 | F4 G2 B2 | %5
w: A- ve Ma- ri- * * a,|gra- ti- a|ple- na,|gra- ti- a|ple- na, Do-|
w: |||||
 A2 G2 F4 | E2 G2 F E2 ^D | E4 z F2 F | G2 F2 G4 | z8 | z4 z2 G2 | F2 G2 AG GF/E/ | F2 F2 G2 G2 | %13
w: mi- nus te-|cum, Do- mi- nus te-|cum, Be- ne-|di- cta tu||in|mu- li- e- * * * *|* ri- bus, et|
w: ||||||||
 A2 B2 A2 G2 | F2 G2 A2 G2 | F2 E2 z4 |"^(see Note on page 3)" F4 G3 F | E2 F3 E E2- | E2 ^D2 E4 | %19
w: be- ne- di- ctus|fru- ctus ven- tris|tu- i:|Je- * *||* * sus.|
w: |||Je- * *|* * sus Chri-|* * stus.|
[M:3/2] B4 B4 B4 | d8 ^c4 | B4 B4 ^A4 | B8 z4 | B4 B4 B4 | d8 ^c4 | B4 B4 ^A4 | B8 z4 | G4 G4 A4 | %28
w: San- cta Ma-|ri- a|Ma- ter De-|i,|San- cta Ma-|ri- a|Ma- ter De-|i,|O- ra pro|
w: |||||||||
 B8 A4 | G4 G4 A4 | B8 A4 |[M:4/4] G2 G2 G2 F2 | G4 B4 | B2 A2 A4 | A2 B2 d2 ^c2- | %35
w: no- bis,|o- ra pro|no- bis|pec- ca- to- ri-|bus nunc|et in ho-|ra mor- tis no-|
w: |||||||
 cB B3 ^A/^G/ A2 | B2 B=A =GF/E/ F2- | FE E4 ^D2 | E8- | E8- | E8 |] %41
w: |strae. A- * * * * *||men.|_||
w: ||||||
V:2
 z14 |[M:4/4] z4 z2 G2 | F2 E2 F2 B,2 | z2 G2 F2 E2 | E2 ^D2 E2 G2 | F2 E4 ^D2 | E2 =D2 DB, B,2 | %7
w: |gra-|ti- a ple- na,|gra- ti- a|ple- * na, Do-|mi- nus te-|cum, Do- mi- nus te-|
w: |||||||
 B,4 z =D2 D | D2 D2 D4 | z8 | z4 z2 E2 | ^D2 E2 FE E2- | E2 ^D2 E2 E2 | =D3 E FE D2 | ^C2 D4 ED | %15
w: cum, Be- ne-|di- cta tu||in|mu- li- e- * *|* ri- bus, et|be- * * * ne-|di- ctus fru- *|
w: ||||||||
 ^CA, B,2 C2 E2- | E^D D2 E2 B,2- | B,2 =D2 B,4- | B,4 B,4 |[M:3/2] G4 F4 ^G4 | A8 A4 | F4 =G4 F4 | %22
w: * * * ctus ven-|* tris tu- i, Je-||* sus.|San- cta Ma-|ri- a|Ma- ter De-|
w: |* * * * Je-|* sus Chri-|* tus.||||
 F8 z4 | G4 F4 ^G4 | A8 A4 | F4 =G4 F4 | F8 z4 | E4 E4 F4 | G8 F4 | E4 E4 F4 | G8 F4 | %31
w: i,|San- cta Ma-|ri- a|Ma- ter De-|i,|O- ra pro|no- bis,|o- ra pro|no- bis|
w: |||||||||
[M:4/4] E2 E2 D3 D | D4 z2 G2 | G2 F2 E4 | F2 D4 A2 | F4 F4 | F3 E D3 ^C | B,8 | B,8 | =C8 | B,8 |] %41
w: pec- ca- to- ri-|bus nunc|et in ho-|ra mor- tis|no- strae.|A- * * *||men.|A-|men.|
w: ||||||||||
V:3
 z14 |[M:4/4] z4 z2 e2 | =d2 ^c2 ^d4 | e4 z4 | z4 e3 B | =d2 e2 B4 | z2 B2 AG F2 | ^G4 z A2 A | %8
w: |gra-|ti- a ple-|na,|Do- mi-|nus te- cum,|Do- mi- nus te-|cum, Be- ne-|
w: ||||||||
 B2 A2 =G2 B2 | A2 B2 cB e2- | e2 ^d2 e4 | z2 e2 =d2 e2 | B3 B E4 | z4 z2 G2 | A2 B2 A2 B2 | %15
w: di- cta tu in|mu- li- e- * *|* ri- bus|in mu- li-|e- ri- bus,|et|be- ne- di- ctus|
w: |||||||
 F2 G2 A2 G2 | F4 E2 G2- | G2 A2 G2 FE | F4 ^G4 |[M:3/2] e4 ^d4 e4 | f8 e4 | =d4 e4 ^c4 | ^d8 z4 | %23
w: fru- ctus ven- tris|tu- i: Je-||* sus.|San- cta Ma-|ri- a|Ma- ter De-|i,|
w: |* * Je-|* sus Chri- * *|* stus.|||||
 e4 ^d4 e4 | f8 e4 | d4 e4 ^c4 | ^d8 z4 | B4 B4 =d4 | d8 d4 | B4 B4 d4 | d8 d4 | %31
w: San- cta Ma-|ri- a|Ma- ter De-|i,|O- ra pro|no- bis,|o- ra pro|no- bis|
w: ||||||||
[M:4/4] B2 c2 B2 A2 | B4 z2 d2 | d2 d4 ^c2 | d3 ^c B2 e2- | e2 d2 ^c4 | d2 d^c B3 A | G2 FE F4 | %38
w: pec- ca- to- ri-|bus nunc|et in ho-|ra _ _ mor-|* tis no-|strae. A- * * *||
w: |||||||
 G8 | A8 | ^G8 |] %41
w: men.|A-|men.|
w: |||
V:4
 z14 |[M:4/4] z8 | z4 z2 B,2 | A,2 G,2 A,4 | B,4 z4 | z8 | z2 G,2 =D,E, B,,2 | E,4 z =D,2 D, | %8
w: ||gra-|ti- a ple-|na||Do- mi- nus te-|cum, Be- ne-|
w: ||||||||
 G,2 D,2 G,,2 G,2 | F,2 G,2 A,G, G,F,/E,/ | F,2 F,2 E,4 | z8 | z8 | z2 G,2 A,2 B,2 | %14
w: di- cta tu in|mu- li- e- * * * *|* ri- bus|||et be- ne-|
w: ||||||
 A,2 G,2 F,2 G,2 | A,2 G,2 F,2 E,2 | B,,4 E,4- | E,2 =D,2 E,4 | B,,4 E,4 |[M:3/2] E,4 B,4 E,4 | %20
w: di- ctus fru- ctus|ven- tris tu- i:|Je- *||* sus.|San- cta Ma-|
w: ||Je- *|* sus Chri-|* stus.||
 =D,8 A,4 | B,4 E,4 F,4 | B,,8 z4 | E,4 B,4 E,4 | D,8 A,4 | B,4 E,4 F,4 | B,,8 z4 | E,4 E,4 =D,4 | %28
w: ri- a|Ma- ter De-|i,|San- cta Ma-|ri- a|Ma- ter De-|i,|O- ra pro|
w: ||||||||
 G,8 D,4 | E,4 E,4 D,4 | G,8 D,4 |[M:4/4] E,2 C,2 G,,2 D,2 | G,,4 G,4 | G,2 D,2 A,4 | D,2 G,4 A,2 | %35
w: no- bis,|o- ra pro|no- bis|pec- ca- to- ri-|bus nunc|et in ho-|ra mor- tis|
w: |||||||
 B,4 F,4 | %36
w: no- strae.|
w: |
"^Note:  There is disagreement between sources on the underlay of the passage in measures 17-19Both versions have been provided." B,,8- | %37
w: A-|
w: |
"^Hail Mary, full of grace, the Lord is with you;Blessed are you among women,and blessed is the fruit of your womb, Jesus (Christ).Holy Mary, Mother of God,pray for us sinners,now and at the hour of our death.  Amen." B,,8 | %38
w: |
w: |
 E,8 | A,,8 | E,8 |] %41
w: men.|A-|men.|
w: |||

